Papirus/32x32/apps/accessories-text-editor.svg

<svg xmlns="http://www.w3.org/2000/svg" width="32" height="32" version="1">
 <path fill="#e4e4e4" d="m27 28.5v-25c0-0.831-0.669-1.5-1.5-1.5h-19c-0.831 0-1.5 0.669-1.5 1.5v25c0 0.831 0.669 1.5 1.5 1.5h19c0.831 0 1.5-0.669 1.5-1.5z"/>
 <path fill="#fff" opacity=".1" d="m6.5 2c-0.831 0-1.5 0.669-1.5 1.5v1c0-0.831 0.669-1.5 1.5-1.5h19c0.831 0 1.5 0.669 1.5 1.5v-1c0-0.831-0.669-1.5-1.5-1.5z"/>
 <path opacity=".2" d="m5 28.5v1c0 0.831 0.669 1.5 1.5 1.5h19c0.831 0 1.5-0.669 1.5-1.5v-1c0 0.831-0.669 1.5-1.5 1.5h-19c-0.831 0-1.5-0.669-1.5-1.5z"/>
 <g transform="translate(3)">
  <circle fill="#f34235" fill-rule="evenodd" cx="21" cy="23" r="8"/>
 </g>
 <path d="M 26.408203 19 C 26.286839 19 26.164547 19.046385 26.070312 19.140625 L 25.140625 20.078125 L 26.921875 21.859375 L 27.859375 20.929688 C 28.047855 20.741218 28.047855 20.444339 27.859375 20.255859 L 26.744141 19.140625 C 26.649901 19.046385 26.529567 19 26.408203 19 z M 24.433594 20.785156 L 20 25.21875 L 20 27 L 21.78125 27 L 26.214844 22.566406 L 24.433594 20.785156 z" style="fill:#ffffff"/>
 <path fill-rule="evenodd" opacity=".2" d="m31.979 23.424a8 8 0 0 1 -7.979 7.576 8 8 0 0 1 -7.979 -7.424 8 8 0 0 0 -0.021 0.424 8 8 0 0 0 8 8 8 8 0 0 0 8 -8 8 8 0 0 0 -0.02148 -0.57617z"/>
</svg>

<svg xmlns="http://www.w3.org/2000/svg" width="32" height="32" version="1">
 <path fill="#ccc" d="m27 28.5v-25c0-0.831-0.669-1.5-1.5-1.5h-19c-0.831 0-1.5 0.669-1.5 1.5v25c0 0.831 0.669 1.5 1.5 1.5h19c0.831 0 1.5-0.669 1.5-1.5z"/>
 <path fill="#fff" opacity=".1" d="m6.5 2c-0.831 0-1.5 0.669-1.5 1.5v1c0-0.831 0.669-1.5 1.5-1.5h19c0.831 0 1.5 0.669 1.5 1.5v-1c0-0.831-0.669-1.5-1.5-1.5z"/>
 <path opacity=".2" d="m5 28.5v1c0 0.831 0.669 1.5 1.5 1.5h19c0.831 0 1.5-0.669 1.5-1.5v-1c0 0.831-0.669 1.5-1.5 1.5h-19c-0.831 0-1.5-0.669-1.5-1.5z"/>
 <g transform="translate(3)">
  <circle fill="#f34235" fill-rule="evenodd" cx="21" cy="23" r="8"/>
 </g>
 <path fill="#fff" d="m20 25.218v1.782h1.7819l4.5004-4.5004-1.7819-1.7819zm7.8586-4.2891c0.18848-0.18847 0.18848-0.48545 0-0.67393l-1.1137-1.1137c-0.18848-0.18848-0.48546-0.18848-0.67393 0l-0.931 0.937 1.782 1.782z"/>
 <path fill-rule="evenodd" opacity=".2" d="m31.979 23.424a8 8 0 0 1 -7.979 7.576 8 8 0 0 1 -7.979 -7.424 8 8 0 0 0 -0.021 0.424 8 8 0 0 0 8 8 8 8 0 0 0 8 -8 8 8 0 0 0 -0.02148 -0.57617z"/>
</svg>
